X:1
T:Title
%%score { 1 | ( 2 3 ) }
L:1/8
M:6/8
K:Bb
V:1 treble nm="Grand Piano"
V:2 bass 
V:3 bass 
V:1
 z3 z[Q:1/4=90] [DF]2 | [DF][B,D][CE] [DF][DG][DA] | [DB]2 [Ec] [Fd]3 | dc=B c2 A | %4
[M:5/8] [DB]-[DB]- [DB]3 |[M:1/8] [FA] |[M:3/4] [EG][EG] [FA][GB] [FA][EG] | %7
 [DF]2 [DF] [FB]2 [Gc] | dc B c2 c |[M:5/8] [DB]-[DB]- [DB]3 |[M:1/8] [DF] | %11
[M:3/4] [Fd][Fd] [Fd][Fd] [Ge][Fd] | c2 c G2 B | A2 A E2 A |[M:5/8] [EG]2 [EG] [DF]2 | %15
[M:1/8] [DF] |[M:3/4] [Fd][Fd] [Fd][Fd] [Ge][Fd] | c2 cG B[^Fc] | d2 d d2 c | %19
[M:5/8] [DB]-[DB]- [DB]3 |] %20
V:2
 z3 z [B,,B,]2 | [B,,B,][B,,F,][B,,F,] [B,,B,][B,,B,][B,,B,] | [B,,F,]2 [B,,B,] [B,,B,]3 | %3
 [F,B,F][F,A,E][F,_A,D] [F,=A,E]2 [F,CE] |[M:5/8] [B,,B,]-[B,,B,]- [B,,B,]3 |[M:1/8] [D,B,] | %6
[M:3/4] [E,B,][E,B,] [E,B,][E,B,] [E,B,][E,B,] | [B,,B,]2 [B,,B,] [D,B,]2 [E,B,] | %8
 [F,B,F][F,B,E] [F,B,D] [F,A,E]2 [F,E] |[M:5/8] [B,,F,]-[B,,F,]- [B,,F,]3 |[M:1/8] [B,,B,] | %11
[M:3/4] [B,,B,][B,,B,] [B,,B,][B,,B,] [B,,B,][B,,B,] | [E,G,E]2 [E,G,E] [E,B,E]2 [E,G,E] | %13
 [F,CE]2 [F,CE] [F,A,C]2 [F,CE] |[M:5/8] [B,,B,]2 [B,,B,] [B,,B,]2 |[M:1/8] [B,,B,] | %16
[M:3/4] [B,,B,][B,,B,] [B,,B,][B,,B,] [B,,B,][B,,B,] | z2 z E z2 | %18
 [F,B,F]2 [F,B,F] [F,B,F]2 [F,A,E] |[M:5/8] [B,,B,]-[B,,B,]- [B,,B,]3 |] %20
V:3
 x6 | x6 | x6 | x6 |[M:5/8] x5 |[M:1/8] x |[M:3/4] x6 | x6 | x6 |[M:5/8] x5 |[M:1/8] x | %11
[M:3/4] x6 | x6 | x6 |[M:5/8] x5 |[M:1/8] x |[M:3/4] x6 | [E,G,E]2 [E,G,E][E,B,]- [E,B,G][E,B,] | %18
 x6 |[M:5/8] x5 |] %20

